X:166
T: Die Mordeltern
N: Q0085H
O: Mitteleuropa, Deutschland (DDR) , Thueringen
R: Ballade, Habgier, Mord, Reue, Selbstmord
M: 6/8
L: 1/8
K: C
 | E2EE2E | EDEG2F |
F2FD2D | GAGE2z |
E2EE2E | EDEG2F |
F2FD2D | GAGE2z

@@@ Tune index: 1221
